X: 1
T: Till Calles Minne
C: Ebbe Jularbo [1983]
M: 3/4
L: 1/8
S: handwritten MS of unknown origin
Z: 2009 John Chambers <jc:trillian.mit.edu>
K: C
eed \
| "C"d2 c2 G2 | E3 ccB | "Dm"B2 A2 F2 | D4 D>C \
| "G7"B,2 B2 A2 | G2 F2 D2 | "C"E6- | E3 eed |
| "C"d2 c2 G2 | E3 ccB | "Dm"B2 A2 F2 | D4 D>C \
| "G7"B,2 B2 A2 | G2 D2 E2 | "C"C6- | C2 "fine"z :|
|: CCB, \
| "Am"A,2 C2 E2 | "A7"^C2 _B2 A2 | "Dm"G2 F3 E | D3 B,B,A, \
| "G7"G,2 B,2 D2 | A2 G3 ^D | "C"E6- | "E7"E3 CCB, |
| "Am"A,2 C2 E2 | "A7"^C2 _B2 A2 | "Dm"G2 F3 E | D3 CCD \
| "Am"E2 C2 A,2 | "E7"G,2 C2 B,2 | "Am"A,6- | A,2 "d.C."z :|
P: Trio
K: F
zc2 \
|: "F"ag fe gf | eg fc AF | "Gm"ed ^cd BG | e4 d2 \
| "C7"cB AB GE | d4 c2 | "F"dc =Bc AF | c4 c2 |
| "F"ag fe gf | eg fc AF | "Gm"ed ^cd BG | e4 d2 \
| "C7"cB AB GE | d4 c2 | "F"[f3c3A3] [fcA] [f2c2A2] | [f2c2A2] z2 "d.C."z2 :|
